packages/web-icons/svgs/naver_blog.svg

<svg viewBox="0 0 48 48" xmlns="http://www.w3.org/2000/svg" class="ridi_icon"><path d="M41.4 21v-7.1h-2.7v1c-.4-.5-1.2-1.3-2.3-1.3-1.8 0-3.8 1.2-3.8 4.6 0 3.5 3.6 3.8 3.6 3.8s1.7.1 2.5-1.2v1c-.1.7-.6 1.5-2.4 1.3v2.5s3.3 0 4.3-1.8c.9-1.5.8-2.3.8-2.8zm-2.6-2.2c-.3.6-.9 1-1.6 1-1 0-1.8-.8-1.8-1.9 0-1 .8-1.9 1.8-1.9.7 0 1.3.4 1.6 1v1.8zm-12-5.2c-2.5 0-4.5 1.9-4.5 4.3s2 4.3 4.5 4.3 4.5-1.9 4.5-4.3-2-4.3-4.5-4.3zm-.1 6.2c-1 0-1.8-.8-1.8-1.9 0-1.1.8-1.9 1.8-1.9s1.8.8 1.8 1.9c0 1.1-.8 1.9-1.8 1.9zm-15-6.1c-1.1 0-1.8.8-2.2 1.3v-4.7H6.8v11.6h2.7v-1c.8 1.3 2.5 1.2 2.5 1.2s3.6-.3 3.6-3.8c-.1-3.4-2-4.6-3.9-4.6zm-.7 6.1c-.7 0-1.2-.4-1.6-.9V17c.4-.6 1-.9 1.6-.9 1 0 1.8.8 1.8 1.9 0 1.1-.7 1.8-1.8 1.8zm5.4-9.8v2.8s.4 0 .9.5c.4.4.5 1.7.5 2V22h2.7v-6.8s0-2.2-1-3.8c-1-1.6-3.1-1.4-3.1-1.4zM38.1 0H9.9C4.7 0 .5 4.3.5 9.6v28.8c0 5.3 4.2 9.6 9.4 9.6h28.2c5.2 0 9.4-4.3 9.4-9.6V9.6c0-5.3-4.2-9.6-9.4-9.6zm7.8 24.4c0 4.9-3.9 8.9-8.7 8.9h-7.8c-.9 2.1-3.6 8.1-3.8 9-.3 1.1-.8 1.4-1.5 1.4s-1.2-1.4-1.2-1.4l-4-9h-8c-4.8 0-8.7-4-8.7-8.9v-14c0-4.9 3.9-8.9 8.7-8.9h26.2c4.8 0 8.7 4 8.7 8.9l.1 14z"/></svg>

<?xml version="1.0" encoding="UTF-8"?>
<svg width="48px" height="48px" viewBox="0 0 48 48" version="1.1" xmlns="http://www.w3.org/2000/svg">
  <!-- Generator: Sketch 41.2 (35397) - http://www.bohemiancoding.com/sketch -->
  <title>naver_blog</title>
  <desc>Created with Sketch.</desc>
  <defs></defs>
  <g id="Page-1" stroke="none" stroke-width="1" fill="none" fill-rule="evenodd">
    <g id="naver_blog" fill="#000000">
      <g id="레이어_1">
        <path d="M41.4,21 L41.4,21 L41.4,13.9 L38.7,13.9 L38.7,14.9 C38.3,14.4 37.5,13.6 36.4,13.6 C34.6,13.6 32.6,14.8 32.6,18.2 C32.6,21.7 36.2,22 36.2,22 C36.2,22 37.9,22.1 38.7,20.8 L38.7,21 L38.7,21.8 C38.6,22.5 38.1,23.3 36.3,23.1 L36.3,25.6 C36.3,25.6 39.6,25.6 40.6,23.8 C41.5,22.3 41.4,21.5 41.4,21 L41.4,21 L41.4,21 Z M38.8,18.8 C38.5,19.4 37.9,19.8 37.2,19.8 C36.2,19.8 35.4,19 35.4,17.9 C35.4,16.9 36.2,16 37.2,16 C37.9,16 38.5,16.4 38.8,17 L38.8,18.8 L38.8,18.8 Z M26.8,13.6 L26.8,13.6 C24.3,13.6 22.3,15.5 22.3,17.9 C22.3,20.3 24.3,22.2 26.8,22.2 L26.8,22.2 C29.3,22.2 31.3,20.3 31.3,17.9 C31.3,15.5 29.3,13.6 26.8,13.6 Z M26.7,19.8 C25.7,19.8 24.9,19 24.9,17.9 C24.9,16.8 25.7,16 26.7,16 C27.7,16 28.5,16.8 28.5,17.9 C28.5,19 27.7,19.8 26.7,19.8 Z M11.7,13.7 C10.6,13.7 9.9,14.5 9.5,15 L9.5,10.3 L6.8,10.3 L6.8,21.9 L9.5,21.9 L9.5,20.9 C10.3,22.2 12,22.1 12,22.1 C12,22.1 15.6,21.8 15.6,18.3 C15.5,14.9 13.6,13.7 11.7,13.7 L11.7,13.7 Z M11,19.8 C10.3,19.8 9.8,19.4 9.4,18.9 L9.4,17 C9.8,16.4 10.4,16.1 11,16.1 C12,16.1 12.8,16.9 12.8,18 C12.8,19.1 12.1,19.8 11,19.8 Z M16.4,10 L16.4,12.8 C16.4,12.8 16.8,12.8 17.3,13.3 C17.7,13.7 17.8,15 17.8,15.3 L17.8,22 L20.5,22 L20.5,15.2 L20.5,15.2 C20.5,15.2 20.5,13 19.5,11.4 C18.5,9.8 16.4,10 16.4,10 L16.4,10 Z M38.1,0 L9.9,0 C4.7,0 0.5,4.3 0.5,9.6 L0.5,38.4 C0.5,43.7 4.7,48 9.9,48 L38.1,48 C43.3,48 47.5,43.7 47.5,38.4 L47.5,9.6 C47.5,4.3 43.3,0 38.1,0 Z M45.9,24.4 C45.9,29.3 42,33.3 37.2,33.3 L29.4,33.3 C28.5,35.4 25.8,41.4 25.6,42.3 C25.3,43.4 24.8,43.7 24.1,43.7 C23.4,43.7 22.9,42.3 22.9,42.3 L18.9,33.3 L10.9,33.3 C6.1,33.3 2.2,29.3 2.2,24.4 L2.2,10.4 C2.2,5.5 6.1,1.5 10.9,1.5 L37.1,1.5 C41.9,1.5 45.8,5.5 45.8,10.4 L45.9,24.4 L45.9,24.4 Z" id="Shape"></path>
      </g>
    </g>
  </g>
</svg>
